X:1     %Music
T:I Have four Sisters
B:Singing Together, Autumn 1972, BBC Publications
F:http://www.folkinfo.org/songs
M:2/4     %Meter
L:1/16     %
K:E
B,2 |E2E2 G2GG |F2F2 E4 |EDEF G2G2 | F2F2 E3 
w:I have four sis-ters be-yond the sea, Per-rie, Mer-rie Dix-ie,  Do-min-ie;
B, |E2E2 G2G2 |FFF2 E4 |EDEF G2G2 | F2F2 E4 |
w: And they each sent a pre-sent to me, Per-rie, Mer-rie, Dix-ie,  Do-min-ie; 
e2E2 E2E2 |EEEE EEE2 |EDEF G2G2 | F2F2 E4 |]
w:Pet-rum, Par-trum, Pa-ra-di-si, Tem- po-rie, Per-rie, Mer-rie, Dix-ie, Do-min-ie. 